X: 66
P: No. LXVI
M: 6/8
L: 1/8
K: D
V: 1
|: B |\
V: 2 clef=bass middle=d
z |\
d3 d3 | f3 f3 | d3 d3 | a3 A3 |\
d3 d3 | f3 f3 | d3 d3 | a3 A2 :|
|: z |\
d3 d3 | d3 d3 | d3 d3 | a3 A2z |\
d3 d3 | d3 d3 | d3 fed | A3 A2 :|

